X: 1
T: The Wellington
R: hornpipe
M: 4/4
L: 1/8
K: Gmaj
|:G2 ge dcBA|(3Bcd FA GFED|A>D (3DDD BD (3DDD|cABG GFED|
G2 ge dcBA|(3Bcd FA GFED|GBAc Bdge|(3ded (3cBA G2 z2:|
|:b3a gfe^d|e^def e2 B2|e^def gfga|bgfg e3f|
g3e deBA|BdFA GFED|GBAc Bdge|(3ded (3cBA G2 z2:|

